X:0
T:Onen Hag Oll
T:One and All
O:Kernow
S:Racca 2, citing Dunstan, Liver, Canow Kernewek
S:https://cornishnationalmusicarchive.co.uk/content/racca-cornish-tunes-for-cornish-sessions-project-1995-1997/
M:2/4
L:1/8
K:G
d |: "G" BG"D7"cA | "G"dBAG | \
[L:1/16] "D"AGAB "Am" cBcd | [L:1/8] "C" ec"D7"BA|
"G"BG"C"cA | "G"dBAG | "D7"D2  F2 | "G"(G2G) :|
[K:D] B |: "D"A>B AF | Adfd | A>B AF | "A7" GEEF |
[L:1/16] GFGA "(G)"BABc | "D"dcde f2g2 | \
[L:1/8]"G" (3fed "A" Ac | (d2d) :|
[K:G] g | "D" f>e dc | [L:1/16] "G" BcdB G2B2 | \
[L:1/8] "C"ce"D7"Af | "G" gGBg |
[L:1/16] "D" fgfe dedc | "G" BcdB [L:1/8] GB |\
"C"ce"D7"Af | "G"g3 z :|